X:1
T:Crazy Train Into
T:crazy train
C:Ozzy Ozborne
Z:All Rights Reserved
L:1/4
M:4/4
K:A
V:1 treble nm="Alto Saxophone"
%%MIDI program 65
V:1
 E E z B | B z D D | E E z c | c z D D | E E z B | B z D D | E E z c | c E/E/ B/E/c/E/ | %8
 B/E/ z A G | ^F G A G | ^F D3 | z4 |] %12

